assets/src/images/icons/ic_brone.svg

<svg width="95" height="104" viewBox="0 0 95 104" fill="none" xmlns="http://www.w3.org/2000/svg">
<g filter="url(#filter0_d)">
<path fill-rule="evenodd" clip-rule="evenodd" d="M56.9488 35.1942C57.1895 35.1663 57.4345 35.1522 57.6826 35.1522C61.1822 35.1522 64.0292 37.9996 64.0292 41.4992C64.0292 44.9988 61.1822 47.8461 57.6826 47.8461C57.4342 47.8461 57.1895 47.8317 56.9488 47.8038V70.9311C56.9488 72.6233 55.5721 74 53.8799 74H33.0686C31.3763 74 30 72.6233 30 70.9311V33.0686C30 31.3767 31.3763 30 33.0686 30H53.8799C55.5721 30 56.9488 31.3767 56.9488 33.0686V35.1942ZM33.0686 31.7188C32.3243 31.7188 31.7188 32.3243 31.7188 33.0686V34.748H49.9768C50.4514 34.748 50.8362 35.1328 50.8362 35.6074C50.8362 36.0821 50.4514 36.4668 49.9768 36.4668H31.7188V65.8134H33.8944V41.6711C33.8944 41.1964 34.2791 40.8117 34.7538 40.8117H51.3726C51.6247 38.4786 53.1464 36.5208 55.2307 35.6447C55.2304 35.6323 55.23 35.6198 55.23 35.6074V33.0686C55.23 32.3243 54.6245 31.7188 53.8799 31.7188H33.0686ZM53.8799 72.2813C54.6245 72.2813 55.23 71.6757 55.23 70.9314V67.5322H31.7188V70.9314C31.7188 71.6757 32.3243 72.2813 33.0686 72.2813H53.8799ZM41.6982 65.8134H45.2502V61.5021H41.6982V65.8134ZM53.0544 65.8134H55.23V47.353C54.4009 47.0042 53.661 46.4846 53.0544 45.838V54.8685C53.0544 55.3432 52.6697 55.7279 52.195 55.7279C51.7204 55.7279 51.3357 55.3432 51.3357 54.8685V42.5304H35.6131V65.8134H37.0949V60.6428C37.0949 60.1684 37.4796 59.7834 37.9543 59.7834C38.4289 59.7834 38.8136 60.1684 38.8136 60.6428V65.8134H39.9795V60.6428C39.9795 60.1684 40.3642 59.7834 40.8389 59.7834H46.1096C46.5843 59.7834 46.969 60.1684 46.969 60.6428V65.8134H48.1352V60.6428C48.1352 60.1684 48.5199 59.7834 48.9945 59.7834C49.4692 59.7834 49.8539 60.1684 49.8539 60.6428V65.8134H51.3357V62.5132C51.3357 62.0386 51.7204 61.6539 52.195 61.6539C52.6697 61.6539 53.0544 62.0386 53.0544 62.5132V65.8134ZM53.0544 41.4992C53.0544 44.0511 55.1307 46.1274 57.6826 46.1274C60.2346 46.1274 62.3108 44.0511 62.3108 41.4992C62.3108 38.9472 60.2346 36.871 57.6826 36.871C55.1307 36.871 53.0544 38.9472 53.0544 41.4992ZM56.645 43.6285C56.8129 43.796 57.0327 43.8799 57.2526 43.8799C57.4725 43.8799 57.6924 43.796 57.8606 43.6281L60.5595 40.9292C60.8949 40.5935 60.8949 40.0493 60.5592 39.7136C60.2238 39.3783 59.6797 39.3783 59.344 39.714L57.2526 41.8053L56.5107 41.0634C56.175 40.7278 55.6309 40.7278 55.2955 41.0634C54.9598 41.3991 54.9598 41.9433 55.2955 42.2787L56.645 43.6285ZM40.863 70.7659H45.2177C45.692 70.7659 46.077 70.3812 46.077 69.9066C46.077 69.4322 45.692 69.0472 45.2177 69.0472H40.863C40.3884 69.0472 40.0037 69.4322 40.0037 69.9066C40.0037 70.3812 40.3884 70.7659 40.863 70.7659ZM52.195 59.4766C52.1393 59.4766 52.0826 59.4715 52.0275 59.4601C51.9725 59.449 51.9184 59.4319 51.8661 59.4104C51.8144 59.3889 51.7643 59.3624 51.718 59.3312C51.6707 59.3003 51.627 59.2644 51.5874 59.2248C51.5478 59.1852 51.5119 59.1415 51.48 59.0942C51.4491 59.0479 51.4226 58.9979 51.4011 58.9462C51.3796 58.8938 51.3632 58.8397 51.3521 58.7847C51.3407 58.7296 51.3357 58.6729 51.3357 58.6172C51.3357 58.5615 51.3407 58.5047 51.3521 58.4497C51.3632 58.3946 51.3796 58.3406 51.4011 58.2889C51.4226 58.2365 51.4491 58.1865 51.48 58.1402C51.5119 58.0928 51.5478 58.0492 51.5874 58.0096C51.627 57.97 51.6707 57.934 51.718 57.9032C51.7643 57.8719 51.8144 57.8454 51.8661 57.8239C51.9184 57.8025 51.9725 57.7853 52.0275 57.7743C52.1373 57.7518 52.2518 57.7528 52.3626 57.7743C52.4176 57.7853 52.4717 57.8025 52.5233 57.8239C52.5757 57.8454 52.6257 57.8719 52.6721 57.9032C52.7194 57.934 52.763 57.97 52.8026 58.0096C52.8423 58.0492 52.8782 58.0928 52.9091 58.1402C52.9403 58.1865 52.9668 58.2365 52.9883 58.2889C53.0098 58.3406 53.0262 58.3946 53.0373 58.4497C53.0484 58.5047 53.0544 58.5615 53.0544 58.6172C53.0544 58.6729 53.0484 58.7296 53.0373 58.7847C53.0262 58.8397 53.0098 58.8938 52.9883 58.9462C52.9668 58.9979 52.9403 59.0479 52.9091 59.0942C52.8782 59.1415 52.8423 59.1852 52.8026 59.2248C52.763 59.2644 52.7194 59.3003 52.6721 59.3312C52.6257 59.3624 52.5757 59.3889 52.5233 59.4104C52.4717 59.4319 52.4176 59.449 52.3626 59.4601C52.3075 59.4715 52.2508 59.4766 52.195 59.4766ZM37.9543 50.0026H41.7311C42.2058 50.0026 42.5905 49.6179 42.5905 49.1433V45.3664C42.5905 44.8917 42.2058 44.507 41.7311 44.507H37.9543C37.4796 44.507 37.0949 44.8917 37.0949 45.3664V49.1433C37.0949 49.6179 37.4796 50.0026 37.9543 50.0026ZM40.8718 48.2839H38.8133V46.2257H40.8718V48.2839ZM48.9946 50.0026H45.2177C44.743 50.0026 44.3583 49.6179 44.3583 49.1433V45.3664C44.3583 44.8917 44.743 44.507 45.2177 44.507H48.9946C49.4692 44.507 49.8539 44.8917 49.8539 45.3664V49.1433C49.8539 49.6179 49.4692 50.0026 48.9946 50.0026ZM46.0771 48.2839H48.1352V46.2257H46.0771V48.2839ZM37.9543 57.6162H41.7311C42.2058 57.6162 42.5905 57.2314 42.5905 56.7568V52.9799C42.5905 52.5052 42.2058 52.1205 41.7311 52.1205H37.9543C37.4796 52.1205 37.0949 52.5052 37.0949 52.9799V56.7568C37.0949 57.2314 37.4796 57.6162 37.9543 57.6162ZM40.8718 55.8974H38.8133V53.8393H40.8718V55.8974ZM48.9946 57.6162H45.2177C44.743 57.6162 44.3583 57.2314 44.3583 56.7568V52.9799C44.3583 52.5052 44.743 52.1205 45.2177 52.1205H48.9946C49.4692 52.1205 49.8539 52.5052 49.8539 52.9799V56.7568C49.8539 57.2314 49.4692 57.6162 48.9946 57.6162ZM46.0771 55.8974H48.1352V53.8393H46.0771V55.8974Z" fill="#0EF5FF"/>
</g>
<defs>
<filter id="filter0_d" x="0" y="0" width="94.0292" height="104" filterUnits="userSpaceOnUse" color-interpolation-filters="sRGB">
<feFlood flood-opacity="0" result="BackgroundImageFix"/>
<feColorMatrix in="SourceAlpha" type="matrix" values="0 0 0 0 0 0 0 0 0 0 0 0 0 0 0 0 0 0 127 0"/>
<feOffset/>
<feGaussianBlur stdDeviation="15"/>
<feColorMatrix type="matrix" values="0 0 0 0 0.054902 0 0 0 0 0.960784 0 0 0 0 1 0 0 0 0.8 0"/>
<feBlend mode="normal" in2="BackgroundImageFix" result="effect1_dropShadow"/>
<feBlend mode="normal" in="SourceGraphic" in2="effect1_dropShadow" result="shape"/>
</filter>
</defs>
</svg>

<svg width="95" height="104" viewBox="0 0 95 104" fill="none" xmlns="http://www.w3.org/2000/svg"><g filter="url(#filter0_d)"><path fill-rule="evenodd" clip-rule="evenodd" d="M56.949 35.194a6.354 6.354 0 017.08 6.305 6.354 6.354 0 01-7.08 6.305V70.93a3.072 3.072 0 01-3.07 3.07H33.07A3.072 3.072 0 0130 70.931V33.07A3.072 3.072 0 0133.069 30h20.81a3.072 3.072 0 013.07 3.069v2.125zm-23.88-3.475a1.35 1.35 0 00-1.35 1.35v1.679h18.258a.86.86 0 010 1.719H31.719v29.346h2.175V41.671a.86.86 0 01.86-.86h16.619a6.362 6.362 0 013.858-5.166l-.001-.038V33.07a1.35 1.35 0 00-1.35-1.35H33.069zm20.81 40.562c.745 0 1.351-.605 1.351-1.35v-3.399H31.719v3.4c0 .744.605 1.35 1.35 1.35h20.81zM41.7 65.813h3.551v-4.31h-3.552v4.31zm11.355 0h2.176v-18.46a6.375 6.375 0 01-2.176-1.515v9.03a.86.86 0 11-1.718 0V42.53H35.613v23.283h1.482v-5.17a.86.86 0 011.719 0v5.17h1.166v-5.17a.86.86 0 01.859-.86h5.27a.86.86 0 01.86.86v5.17h1.166v-5.17a.86.86 0 011.719 0v5.17h1.482v-3.3a.86.86 0 111.718 0v3.3zm0-24.314a4.634 4.634 0 004.629 4.628A4.634 4.634 0 0062.31 41.5a4.633 4.633 0 00-4.628-4.628 4.634 4.634 0 00-4.629 4.628zm3.591 2.13a.858.858 0 001.216 0l2.699-2.7a.86.86 0 00-1.216-1.215l-2.091 2.091-.742-.742a.86.86 0 10-1.216 1.216l1.35 1.35zM40.863 70.766h4.355a.86.86 0 000-1.719h-4.355a.86.86 0 000 1.719zm11.332-11.29a.83.83 0 01-.329-.066.85.85 0 01-.386-.316.867.867 0 01-.128-.644.863.863 0 011.01-.676.864.864 0 01.547 1.32.812.812 0 01-.237.237.834.834 0 01-.31.13.83.83 0 01-.167.016zm-14.24-9.473h3.776a.86.86 0 00.86-.86v-3.777a.86.86 0 00-.86-.859h-3.777a.86.86 0 00-.86.86v3.776c0 .475.386.86.86.86zm2.917-1.72h-2.059v-2.057h2.059v2.058zm8.123 1.72h-3.777a.86.86 0 01-.86-.86v-3.777a.86.86 0 01.86-.859h3.777a.86.86 0 01.859.86v3.776a.86.86 0 01-.86.86zm-2.918-1.72h2.058v-2.057h-2.058v2.058zm-8.123 9.333h3.777a.86.86 0 00.86-.86V52.98a.86.86 0 00-.86-.86h-3.777a.86.86 0 00-.86.86v3.777c0 .474.386.86.86.86zm2.918-1.719h-2.059V53.84h2.059v2.058zm8.123 1.72h-3.777a.86.86 0 01-.86-.86V52.98a.86.86 0 01.86-.86h3.777a.86.86 0 01.859.86v3.777a.86.86 0 01-.86.86zm-2.918-1.72h2.058V53.84h-2.058v2.058z" fill="#0EF5FF"/></g><defs><filter id="filter0_d" x="0" y="0" width="94.029" height="104" filterUnits="userSpaceOnUse" color-interpolation-filters="sRGB"><feFlood flood-opacity="0" result="BackgroundImageFix"/><feColorMatrix in="SourceAlpha" values="0 0 0 0 0 0 0 0 0 0 0 0 0 0 0 0 0 0 127 0"/><feOffset/><feGaussianBlur stdDeviation="15"/><feColorMatrix values="0 0 0 0 0.054902 0 0 0 0 0.960784 0 0 0 0 1 0 0 0 0.8 0"/><feBlend in2="BackgroundImageFix" result="effect1_dropShadow"/><feBlend in="SourceGraphic" in2="effect1_dropShadow" result="shape"/></filter></defs></svg>
